X: 1
T: Piper's Couch, The
M: 4/4
L: 1/8
R: reel
K: Dmaj
|: A2 fd Affd | g2 gf eaaf | A2 fd Affd | A2 ce gecA |
A2 fd Affd | ABde f2 ed | f2 ed ABdA | ABde d2 d2 :|
|:Adda afdA | Addf fdAf | g2 gf eAce | f2 fe dABd |
Adda afdA | Addf fdAf | e2 ef eAcd | eddc d2 d2 :|
